X: 119
T: Nenciozza mia
N: Derived from Mar3020-Nenciozza_mia.krn
C: Johannes Martini
%%abc-version 2.0
%%abcx-abcm2ps-target-version 5.9.1 (29 Sep 2008)
%%abc-creator hum2abc beta
%%abcx-conversion-date 2019/02/17 07:19:43
%%abc-edited-by Jesse Rodin
%%abc-edited-by Chris Gage 11-06-2014
%%abcx-initial-encoding-date 2015/03/02/
%%humdrum-veritas 141479620
%%humdrum-veritas-data 2572485167
%%linebreak <none>
%%barnumbers 0
L: 1/4
M: 2/1
Q: 1/2=120
%%staves [1 2 3 4]
V: 1 clef=treble
V: 2 clef=treble-8
V: 3 clef=treble-8
V: 4 clef=bass
K: C
[V:1] c6BA | 
[V:2] c6d2 | 
[V:3] z8 | 
[V:4] C8 | 
[V:1] G4A4 | 
[V:2] e4f4 | 
[V:3] c8 | 
[V:4] C4A,4 | 
[V:1] B4A4- | 
[V:2] g4z4 | 
[V:3] d8- | 
[V:4] G,4F,2D,2- | 
[V:1] A2GFE2A2- | 
[V:2] a8 | 
[V:3] d4c4 | 
[V:4] D,E,F,G,A,2F,2 | 
[V:1] AGG4^F2 | 
[V:2] d8 | 
[V:3] B4A4 | 
[V:4] G,4D,4 | 
[V:1] G6F2 | 
[V:2] B8 | 
[V:3] G8 | 
[V:4] E,6D,2 | 
[V:1] E4D4 | 
[V:2] c4d4 | 
[V:3] G4B4- | 
[V:4] C,4G,4- | 
[V:1] G4F4 | 
[V:2] B2c2d4 | 
[V:3] B4A4 | 
[V:4] G,2F,2D,4 | 
[V:1] E3FG2A2- | 
[V:2] G6F2 | 
[V:3] c8 | 
[V:4] C,3D,E,2F,2- | 
[V:1] AGB3AG2- | 
[V:2] A2G2B2d2- | 
[V:3] d4B4 | 
[V:4] F,E,G,3F,G,2 | 
[V:1] G2^FEF4 | 
[V:2] d2A2d3c | 
[V:3] A8 | 
[V:4] D,8 | 
[V:1] G8 | 
[V:2] B3cd2g2- | 
[V:3] G8- | 
[V:4] D8 | 
[V:1] z4B4 | 
[V:2] g2fed4 | 
[V:3] G8 | 
[V:4] z4G,4 | 
[V:1] c4B2A2- | 
[V:2] c2A2B2d2- | 
[V:3] z8 | 
[V:4] A,4G,2F,2- | 
[V:1] A2GABAGF | 
[V:2] dcc4B2 | 
[V:3] z8 | 
[V:4] F,2E,2D,4 | 
[V:1] E3FG2A2- | 
[V:2] c3de2c2- | 
[V:3] c8 | 
[V:4] C,6F,2- | 
[V:1] AGFEE4- | 
[V:2] c2A2c4 | 
[V:3] A4G4 | 
[V:4] F,4C,4 | 
[V:1] E2DCD4 | 
[V:2] A6B2 | 
[V:3] F6E2 | 
[V:4] D,8 | 
[V:1] E3FG3A | 
[V:2] c4B4 | 
[V:3] E8 | 
[V:4] C,4G,4- | 
[V:1] B2c3BAG | 
[V:2] G4z4 | 
[V:3] E4A4- | 
[V:4] G,2F,E,F,4- | 
[V:1] A2G4^F2 | 
[V:2] c4d4 | 
[V:3] A4A4 | 
[V:4] F,2E,2D,4 | 
[V:1] G2E3FG2- | 
[V:2] B4c4 | 
[V:3] G8 | 
[V:4] E,4C,4 | 
[V:1] GFE2D2F2- | 
[V:2] B4A4 | 
[V:3] E4F4 | 
[V:4] G,4A,4 | 
[V:1] FEDCB,4 | 
[V:2] z4d4 | 
[V:3] D6C2 | 
[V:4] F,8 | 
[V:1] C4z4 | 
[V:2] e8 | 
[V:3] C8 | 
[V:4] G,4E,4 | 
[V:1] [M:3/1]C4D4F4 | 
[V:2] [M:3/1]A8F4 | 
[V:3] [M:3/1]z12 | 
[V:4] [M:3/1]F,6E,2D,4 | 
[V:1] E6F2G4 | 
[V:2] G8G4 | 
[V:3] c12 | 
[V:4] C,6D,2E,4 | 
[V:1] F8A4- | 
[V:2] A8d4 | 
[V:3] d12 | 
[V:4] D,12 | 
[V:1] A4B4c4 | 
[V:2] e4d4f3e | 
[V:3] c4B4A4 | 
[V:4] z12 | 
[V:1] d6c2B2A2 | 
[V:2] g8g4 | 
[V:3] G8G4 | 
[V:4] D8G,4- | 
[V:1] G8F4 | 
[V:2] d4e4c4- | 
[V:3] B8A4 | 
[V:4] G,4E,4F,4 | 
[V:1] E4A6G2 | 
[V:2] c4A8 | 
[V:3] c8d4 | 
[V:4] C,4F,6E,2 | 
[V:1] G8^F4 | 
[V:2] B4d6c2 | 
[V:3] B4A8 | 
[V:4] G,4D,8 | 
[V:1] G6F2D4 | 
[V:2] B4G4B4 | 
[V:3] G12- | 
[V:4] E,6F,2G,4 | 
[V:1] E4C4z4 | 
[V:2] c8B4 | 
[V:3] G12 | 
[V:4] C,6D,2E,4 | 
[V:1] c8A4 | 
[V:2] A4c6B2 | 
[V:3] z12 | 
[V:4] F,4C,4F,4 | 
[V:1] G4F8 | 
[V:2] c4d4B4 | 
[V:3] z12 | 
[V:4] E,4D,8 | 
[V:1] E4G4F4 | 
[V:2] c4e4d4 | 
[V:3] c8A4 | 
[V:4] C,8D,4 | 
[V:1] E6C2D4 | 
[V:2] c4A6G2 | 
[V:3] G4F6E2 | 
[V:4] E,4F,4A,4 | 
[V:1] E6F2G4 | 
[V:2] B8c4 | 
[V:3] E8E4 | 
[V:4] G,8E,4 | 
[V:1] F4C4F4 | 
[V:2] d6c2A4 | 
[V:3] A8A4 | 
[V:4] D,4F,6E,2 | 
[V:1] G4E6D2 | 
[V:2] c6B2G4 | 
[V:3] G8E4 | 
[V:4] C,12 | 
[V:1] C8B,4 | 
[V:2] A4F6E2 | 
[V:3] F4D6C2 | 
[V:4] F,8D,4 | 
[V:1] C12 |]  
[V:2] G12 |]  
[V:3] C12 |]  
[V:4] E,12 |]  



